svg/fluentui-system-icons/ic_fluent_timer_2_20_regular.svg

<svg width="20" height="20" viewBox="0 0 20 20" fill="none" xmlns="http://www.w3.org/2000/svg">
<path d="M7 2.5C7 2.22386 7.22386 2 7.5 2H11.5C11.7761 2 12 2.22386 12 2.5C12 2.77614 11.7761 3 11.5 3H7.5C7.22386 3 7 2.77614 7 2.5ZM14.4492 3.92899C14.6444 3.73373 14.961 3.73373 15.1563 3.92899L16.5705 5.34321C16.7658 5.53847 16.7658 5.85505 16.5705 6.05031C16.3752 6.24558 16.0587 6.24558 15.8634 6.05031L14.4492 4.6361C14.2539 4.44084 14.2539 4.12426 14.4492 3.92899ZM9 6.5C9 6.22386 9.22386 6 9.5 6C9.77614 6 10 6.22386 10 6.5V11.5C10 11.7761 9.77614 12 9.5 12C9.22386 12 9 11.7761 9 11.5V6.5ZM12 17.5404C11.2236 17.8373 10.3808 18 9.5 18C5.63401 18 2.5 14.866 2.5 11C2.5 7.13401 5.63401 4 9.5 4C13.0712 4 16.0178 6.67428 16.4464 10.1295C16.1454 10.0451 15.828 10 15.5 10C15.4723 10 15.4447 10.0003 15.4172 10.001C14.9415 7.16278 12.4733 5 9.5 5C6.18629 5 3.5 7.68629 3.5 11C3.5 14.3137 6.18629 17 9.5 17C10.4663 17 11.3793 16.7716 12.1879 16.3657C12.0661 16.7214 12 17.103 12 17.5V17.5404ZM15.5 11C14.1193 11 13 12.1193 13 13.5C13 13.7761 13.2239 14 13.5 14C13.7761 14 14 13.7761 14 13.5C14 12.6716 14.6716 12 15.5 12C16.3284 12 17 12.6716 17 13.5C17 14.3284 16.3284 15 15.5 15C14.1193 15 13 16.1193 13 17.5V18.5C13 18.7761 13.2239 19 13.5 19H17.5C17.7761 19 18 18.7761 18 18.5C18 18.2239 17.7761 18 17.5 18H14V17.5C14 16.6716 14.6716 16 15.5 16C16.8807 16 18 14.8807 18 13.5C18 12.1193 16.8807 11 15.5 11Z" fill="#212121"/>
</svg>

<svg xmlns="http://www.w3.org/2000/svg" width="20" height="20"><path d="M7 2.5a.5.5 0 0 1 .5-.5h4a.5.5 0 0 1 0 1h-4a.5.5 0 0 1-.5-.5Zm7.45 1.429a.5.5 0 0 1 .706 0l1.414 1.414a.5.5 0 1 1-.707.707L14.45 4.636a.5.5 0 0 1 0-.707ZM9 6.5a.5.5 0 0 1 1 0v5a.5.5 0 0 1-1 0v-5Zm3 11.04a7 7 0 1 1 4.446-7.41 3.5 3.5 0 0 0-1.029-.13A6.002 6.002 0 0 0 3.5 11a6 6 0 0 0 8.688 5.366A3.495 3.495 0 0 0 12 17.5v.04ZM15.5 11a2.5 2.5 0 0 0-2.5 2.5.5.5 0 0 0 1 0 1.5 1.5 0 1 1 1.5 1.5 2.5 2.5 0 0 0-2.5 2.5v1a.5.5 0 0 0 .5.5h4a.5.5 0 0 0 0-1H14v-.5a1.5 1.5 0 0 1 1.5-1.5 2.5 2.5 0 0 0 0-5Z"/></svg>
